contributed-vectors/thaichana.svg

<svg width="192" height="192" viewBox="0 0 192 192" fill="none" xmlns="http://www.w3.org/2000/svg">
<g clip-path="url(#clip0)">
<path d="M100 128.2C100.6 128.4 101.2 128.7 101.8 128.9L100 128.2Z" fill="#6B7ABB"/>
<g clip-path="url(#clip1)">
<path d="M108.11 172C106.81 171.8 105.71 172.1 104.81 170.6C101.91 165.9 99.21 161 96.41 156.3C95.71 155.1 94.91 153.8 94.11 152.6C93.91 152.3 93.61 152 93.91 151.6C94.21 151.2 94.61 151.4 94.91 151.6C100.91 155 106.31 159.1 111.01 164.2C112.81 166.2 114.71 167.9 116.31 170C116.71 170.5 117.31 171.1 116.11 171.3C113.41 171.7 110.61 171.8 108.11 172Z" fill="#FF837D"/>
<path d="M149.21 154.4C149.51 147.7 150.01 140.9 152.61 134.6C152.81 134.2 152.71 133.7 153.31 133.6C153.71 133.6 154.01 134 154.31 134.3C156.41 137.5 158.51 140.8 160.71 144C161.41 145 161.11 145.7 160.51 146.5C158.51 149.3 155.91 151.6 153.41 153.9C152.51 154.7 151.81 155.7 150.61 156.3C150.21 156.5 150.01 157.1 149.51 156.8C149.01 156.5 149.11 156 149.21 155.5C149.21 155.3 149.21 154.9 149.21 154.4Z" fill="#FF837D"/>
<path d="M147.31 124.3C143.11 118.6 139.11 112.7 134.91 107C134.31 106.2 134.01 105.3 134.01 104.3C134.01 99.7 134.01 95.2 134.41 90.6C134.91 83.6 135.81 76.6 135.81 68.9C135.91 67.6 135.81 65.6 135.61 63.7C135.21 59.2 133.71 55.1 130.71 51.7C124.41 44.5 116.71 39.1 108.11 35C103.11 32.6 97.91 32.3 92.91 35.3C84.71 40.4 78.01 47.3 71.01 53.9C68.71 56.1 68.51 59.5 70.21 62.2C70.91 63.3 71.81 64.4 72.61 65.5C75.51 69.3 79.61 70.6 84.11 69C91.91 66.3 99.61 63.5 107.41 60.8C108.11 60.6 108.81 60.4 109.51 60.4C110.71 60.4 111.51 60.8 111.71 62.1C111.91 63.4 111.31 64.1 110.11 64.5C106.41 65.8 102.71 67.2 99.01 68.5C98.11 68.8 97.71 69.3 97.61 70.3C97.31 72.2 96.51 74 95.21 75.5C93.01 77.9 90.51 80 88.11 82.2C86.51 83.6 84.51 84.3 82.41 84.3C81.31 84.3 81.01 84.6 81.31 85.7C82.11 87.9 81.81 90.1 80.81 92.2C79.31 95.3 76.61 97.5 74.31 99.8C72.91 101.2 71.21 102.2 69.11 102.3C67.51 102.4 67.21 102.6 67.61 104.3C68.11 106.2 67.71 107.9 66.81 109.5C65.71 111.7 64.01 113.6 62.51 115.6C61.21 117.2 59.51 118.2 57.51 119C56.91 119.2 56.11 118.7 55.61 119C55.61 119 55.41 119.2 55.31 119.5C55.01 120.6 58.41 124.2 65.91 129.1C66.61 129.5 68.21 130.6 70.41 131.8C72.01 132.6 73.51 133.7 75.21 134.3C78.11 135.5 81.21 136.1 84.31 136.3C85.11 136.4 85.51 136.8 85.81 137.4C86.91 139.5 88.01 141.6 89.01 143.8C89.41 144.6 89.81 145 90.61 145.3C95.91 146.8 100.61 149.5 105.01 152.7C111.21 157.3 116.51 163 121.41 169C122.21 170 122.91 170.3 124.21 170C130.31 168.5 136.11 166 141.61 163C144.61 161.3 144.61 161.2 144.61 157.7C144.61 149.2 145.21 140.7 148.71 132.9C150.21 129.2 149.31 127.1 147.31 124.3Z" fill="#9ABEFF"/>
<path d="M64.0099 65.2C67.9099 69 71.8099 72.8 75.6099 76.7C79.3099 80.5 83.8099 80.1 86.7099 77C88.2099 75.5 89.9099 74.2 91.4099 72.7C91.7099 72.5 91.9099 72.1 92.1099 71.8C92.3099 71.5 92.5099 71.2 92.2099 71C92.0099 70.8 91.7099 70.9 91.5099 71C89.9099 71.6 88.3099 72.2 86.7099 72.8C81.6099 74.6 76.7099 74.6 72.2099 71.4C69.8099 69.8 68.2099 67.4 66.6099 65C63.2099 59.7 63.8099 54.6 68.1099 50.1C69.8099 48.3 71.7099 46.6 73.5099 44.9C74.3099 44.2 74.3099 43.7 73.6099 42.9C71.8099 41 70.1099 38.9 68.4099 36.9C67.1699 35.45 66.3999 35.1 65.4499 34.72C65.2499 34.64 64.3899 34.31 63.1899 34.22C61.1199 34.07 59.5899 34.77 59.2799 34.91C58.7999 35.14 58.2999 35.31 56.5999 37C55.5999 38 53.4999 39.9 53.4999 39.9C53.4999 39.9 50.6999 43 49.8999 44.9C48.5999 47.8 49.1999 50.6 51.4999 52.9C55.6099 57 59.8099 61.1 64.0099 65.2Z" fill="#9ABEFF"/>
<path d="M36.61 73.8C39.11 75.8 41.51 77.9 44.01 80C50.51 85.5 52.81 88.5 62.31 95.4C63.61 96.4 66.21 98.2 68.81 97.5C69.91 97.2 70.91 96.7 72.01 95.3C73.31 94 74.21 92.6 75.51 91.3C76.81 90 77.01 88.6 76.81 86.9C76.51 84.5 74.81 83.1 73.31 81.5C65.41 74 57.51 66.4 49.61 58.8C47.41 56.6 42.61 56 39.91 59.4C39.01 60.5 35.41 64.5 34.61 65.7C32.81 68 33.71 71.5 36.61 73.8Z" fill="#9ABEFF"/>
<path d="M59.51 111.5C61.21 109.3 61.21 109.3 62.11 108.2C63.81 105.9 63.71 103.2 61.51 101.4C56.91 97.8 52.21 94.3 47.61 90.7C47.51 90.6 47.41 90.5 47.21 90.4C44.11 88 41.11 85.5 37.91 83.2C37.21 82.7 36.61 82.5 35.91 82.6C35.11 82.7 34.21 83.2 32.81 85.4C31.11 88 29.91 89.8 30.01 92.3C30.11 95.1 31.51 97.5 33.61 99.3C36.31 101.7 39.31 103.7 42.21 105.9C45.11 108.1 48.01 110.4 50.91 112.7C53.31 114.9 56.91 114.8 59.51 111.5Z" fill="#9ABEFF"/>
<path d="M93.41 28.4C92.31 26.7 91.21 24.9 90.21 23.1C88.61 20.4 86.31 18.9 83.01 19C81.81 19.1 80.71 19 79.51 19.7L73.91 23.4C70.81 25.4 69.71 29 71.01 32.5C72.21 35.7 74.71 38.1 76.41 40.9C77.01 41.8 77.61 41.3 78.21 40.7C82.61 36.4 87.41 32.8 92.91 30.1C93.71 29.7 93.91 29.2 93.41 28.4Z" fill="#9ABEFF"/>
</g>
</g>
<defs>
<clipPath id="clip0">
<rect width="192" height="192" fill="white"/>
</clipPath>
<clipPath id="clip1">
<rect width="131.11" height="153" fill="white" transform="translate(30 19)"/>
</clipPath>
</defs>
</svg>

<svg xmlns="http://www.w3.org/2000/svg" width="192" height="192" fill="none"><g clip-path="url(#a)"><path fill="#6B7ABB" d="M100 128.2c.6.2 1.2.5 1.8.7l-1.8-.7Z"/><g clip-path="url(#b)"><path fill="#FF837D" d="M108.11 172c-1.3-.2-2.4.1-3.3-1.4-2.9-4.7-5.6-9.6-8.4-14.3-.7-1.2-1.5-2.5-2.3-3.7-.2-.3-.5-.6-.2-1s.7-.2 1 0c6 3.4 11.4 7.5 16.1 12.6 1.8 2 3.7 3.7 5.3 5.8.4.5 1 1.1-.2 1.3-2.7.4-5.5.5-8 .7ZM149.21 154.4c.3-6.7.8-13.5 3.4-19.8.2-.4.1-.9.7-1 .4 0 .7.4 1 .7 2.1 3.2 4.2 6.5 6.4 9.7.7 1 .4 1.7-.2 2.5-2 2.8-4.6 5.1-7.1 7.4-.9.8-1.6 1.8-2.8 2.4-.4.2-.6.8-1.1.5-.5-.3-.4-.8-.3-1.3v-1.1Z"/><path fill="#9ABEFF" d="M147.31 124.3c-4.2-5.7-8.2-11.6-12.4-17.3-.6-.8-.9-1.7-.9-2.7 0-4.6 0-9.1.4-13.7.5-7 1.4-14 1.4-21.7.1-1.3 0-3.3-.2-5.2-.4-4.5-1.9-8.6-4.9-12-6.3-7.2-14-12.6-22.6-16.7-5-2.4-10.2-2.7-15.2.3-8.2 5.1-14.9 12-21.9 18.6-2.3 2.2-2.5 5.6-.8 8.3.7 1.1 1.6 2.2 2.4 3.3 2.9 3.8 7 5.1 11.5 3.5 7.8-2.7 15.5-5.5 23.3-8.2.7-.2 1.4-.4 2.1-.4 1.2 0 2 .4 2.2 1.7.2 1.3-.4 2-1.6 2.4-3.7 1.3-7.4 2.7-11.1 4-.9.3-1.3.8-1.4 1.8-.3 1.9-1.1 3.7-2.4 5.2-2.2 2.4-4.7 4.5-7.1 6.7-1.6 1.4-3.6 2.1-5.7 2.1-1.1 0-1.4.3-1.1 1.4.8 2.2.5 4.4-.5 6.5-1.5 3.1-4.2 5.3-6.5 7.6-1.4 1.4-3.1 2.4-5.2 2.5-1.6.1-1.9.3-1.5 2 .5 1.9.1 3.6-.8 5.2-1.1 2.2-2.8 4.1-4.3 6.1-1.3 1.6-3 2.6-5 3.4-.6.2-1.4-.3-1.9 0 0 0-.2.2-.3.5-.3 1.1 3.1 4.7 10.6 9.6.7.4 2.3 1.5 4.5 2.7 1.6.8 3.1 1.9 4.8 2.5 2.9 1.2 6 1.8 9.1 2 .8.1 1.2.5 1.5 1.1 1.1 2.1 2.2 4.2 3.2 6.4.4.8.8 1.2 1.6 1.5 5.3 1.5 10 4.2 14.4 7.4 6.2 4.6 11.5 10.3 16.4 16.3.8 1 1.5 1.3 2.8 1 6.1-1.5 11.9-4 17.4-7 3-1.7 3-1.8 3-5.3 0-8.5.6-17 4.1-24.8 1.5-3.7.6-5.8-1.4-8.6Z"/><path fill="#9ABEFF" d="M64.01 65.2c3.9 3.8 7.8 7.6 11.6 11.5 3.7 3.8 8.2 3.4 11.1.3 1.5-1.5 3.2-2.8 4.7-4.3.3-.2.5-.6.7-.9.2-.3.4-.6.1-.8-.2-.2-.5-.1-.7 0l-4.8 1.8c-5.1 1.8-10 1.8-14.5-1.4-2.4-1.6-4-4-5.6-6.4-3.4-5.3-2.8-10.4 1.5-14.9 1.7-1.8 3.6-3.5 5.4-5.2.8-.7.8-1.2.1-2-1.8-1.9-3.5-4-5.2-6-1.24-1.45-2.01-1.8-2.96-2.18-.2-.08-1.06-.41-2.26-.5-2.07-.15-3.6.55-3.91.69-.48.23-.98.4-2.68 2.09-1 1-3.1 2.9-3.1 2.9s-2.8 3.1-3.6 5c-1.3 2.9-.7 5.7 1.6 8 4.11 4.1 8.31 8.2 12.51 12.3ZM36.61 73.8c2.5 2 4.9 4.1 7.4 6.2 6.5 5.5 8.8 8.5 18.3 15.4 1.3 1 3.9 2.8 6.5 2.1 1.1-.3 2.1-.8 3.2-2.2 1.3-1.3 2.2-2.7 3.5-4 1.3-1.3 1.5-2.7 1.3-4.4-.3-2.4-2-3.8-3.5-5.4-7.9-7.5-15.8-15.1-23.7-22.7-2.2-2.2-7-2.8-9.7.6-.9 1.1-4.5 5.1-5.3 6.3-1.8 2.3-.9 5.8 2 8.1ZM59.51 111.5c1.7-2.2 1.7-2.2 2.6-3.3 1.7-2.3 1.6-5-.6-6.8-4.6-3.6-9.3-7.1-13.9-10.7-.1-.1-.2-.2-.4-.3-3.1-2.4-6.1-4.9-9.3-7.2-.7-.5-1.3-.7-2-.6-.8.1-1.7.6-3.1 2.8-1.7 2.6-2.9 4.4-2.8 6.9.1 2.8 1.5 5.2 3.6 7 2.7 2.4 5.7 4.4 8.6 6.6 2.9 2.2 5.8 4.5 8.7 6.8 2.4 2.2 6 2.1 8.6-1.2ZM93.41 28.4c-1.1-1.7-2.2-3.5-3.2-5.3-1.6-2.7-3.9-4.2-7.2-4.1-1.2.1-2.3 0-3.5.7l-5.6 3.7c-3.1 2-4.2 5.6-2.9 9.1 1.2 3.2 3.7 5.6 5.4 8.4.6.9 1.2.4 1.8-.2 4.4-4.3 9.2-7.9 14.7-10.6.8-.4 1-.9.5-1.7Z"/></g></g><defs><clipPath id="a"><path fill="#fff" d="M0 0h192v192H0z"/></clipPath><clipPath id="b"><path fill="#fff" d="M30 19h131.11v153H30z"/></clipPath></defs></svg>
